public/logo-small.svg

<svg width="39" height="20" viewBox="0 0 39 20" fill="none" xmlns="http://www.w3.org/2000/svg">
<path d="M39 9.91379C39 14.0517 37.2794 17.0936 32.937 19.2365C31.5207 19.9015 28.9925 19.8892 22.6837 19.8892H20.6939C20.5768 19.8892 20.5183 19.8276 20.5183 19.7167V15.8128H29.2734C32.0357 15.8128 33.8968 14.4704 34.8565 11.8227C35.0906 11.2192 35.2194 10.5296 35.2194 9.72906C35.2194 7.51232 34.084 5.73892 31.7665 4.44581C31.0174 4.13793 30.2332 3.99015 29.4256 3.99015H22.4145C21.759 4.61823 21.1387 5.19704 20.53 5.78818C18.1657 8.0665 16.0822 10.0493 14.2797 11.7611C8.77851 17.0074 5.88745 19.7414 5.55972 19.9754L0.140456 20C0.0585234 20 0 19.9384 0 19.8522L6.70678 13.1897C7.5027 12.4631 10.0192 10.0616 14.268 6.02217C14.9235 5.39409 15.6375 4.70443 16.3866 3.99015C17.6624 2.78325 19.0435 1.44089 20.5768 0H29.1681C33.6744 0 36.8112 2.27833 38.4733 6.83498C38.7074 7.31527 38.9064 8.31281 38.9883 9.90148L39 9.91379Z" fill="white"/>
</svg>

<svg xmlns="http://www.w3.org/2000/svg" width="39" height="20" fill="none"><path fill="#fff" d="M39 9.914c0 4.138-1.72 7.18-6.063 9.323-1.416.665-3.944.652-10.253.652h-1.99c-.117 0-.176-.061-.176-.172v-3.904h8.755c2.763 0 4.624-1.343 5.583-3.99.235-.604.363-1.293.363-2.094 0-2.217-1.135-3.99-3.453-5.283a6.1 6.1 0 0 0-2.34-.456h-7.011c-.656.628-1.276 1.207-1.885 1.798a1157 1157 0 0 1-6.25 5.973c-5.501 5.246-8.393 7.98-8.72 8.214L.14 20C.06 20 0 19.938 0 19.852l6.707-6.662c.796-.727 3.312-3.128 7.561-7.168.656-.628 1.37-1.318 2.119-2.032 1.275-1.207 2.657-2.55 4.19-3.99h8.591c4.506 0 7.643 2.278 9.305 6.835.234.48.433 1.478.515 3.066z"/></svg>
